X:478
%%etbk:tnset id:197,pos:1,rep:3x,ant:
T:The Mingulay Boat Song
M:3/4
L:1/8
C:
R: song
K: Fmaj
C3/2D/2 |: "F"F2 F2 c3/2A/2 | A3/2G/2 F2 ((3AGF) | "C"G2G3/2F/2  ((3AGF) | "B"D2D2 C3/2D/2 | 
"F"F2F2  c3/2A/2 | A3/2G/2F2 ((3AGF) | "C"G2G3/2F/2  ((3AGF) | "F"F6 :|


